X: 32493
T: Plane Tree, The
R: jig
M: 6/8
K: Eminor
|:EGB B2 B|cBA B2 B|cde dcB|AcA B3|
EGB B2 B|cBA B2 B|cde dcB|AGD E3:|
|:e2 ^d- d =d2|^c2 =c- c B2|BcA B2 B|cBA B3|
e2 ^d- d =d2|^c2 =c- c B2|BcA B2 B|AGF E3:|

